X:4
T: Chang shou Shange,shi mei xin
N: C1504
O: China, Sichuan, Jiulong
S: II, 249]
R: Shange. Nann qing]
M: 2/4
L: 1/16
K: G
E3EA2GA | B2A6 | e4B3A | E6z2
E4B3d | A4G2z2 | B4G3B | A4G2z2 | A4G2z2
d2B2d2B2 | A6E2 | A2d2B4 | A2G2E2B,D | E4G4 | E4z4
A8 | A2d2B4 | A2G2E2B,D | E4G4 | E6z2

